icon-themes/sifr_svg/cmd/lc_fontworkshapetype.fontwork-arch-right-pour.svg

<svg viewBox="0 0 24 24" xmlns="http://www.w3.org/2000/svg"><g fill="#555753"><path d="m18 12c-.00472 5.684149-4.339386 10.428573-10 10.945312-.535463.054688-1 .054688-2 .054688v-8h1.263672c1.547861-.136571 2.73526-1.446126 2.736328-3-.0011-1.553874-1.188467-2.863429-2.736328-3h-1.263672v-8c1 0 1.473478 0 2 .05078 5.662105.516877 9.997296 5.263573 10 10.94922zm-2 0c-.00543-4.579513-3.44884-8.424762-8-8.933594v4.043594c2.32345.477546 3.994184 2.518648 4 4.89-.003 2.373554-1.674399 4.417869-4 4.892578v4.046875c4.553382-.509083 7.997547-4.357702 8-8.939453z"/><path d="m16 12c-.00543-4.579513-3.44884-8.424762-8-8.933594v4.043594c2.32345.477546 3.994184 2.518648 4 4.89-.003 2.373554-1.674399 4.417869-4 4.892578v4.046875c4.553382-.509083 7.997547-4.357702 8-8.939453z" opacity=".35"/></g></svg>

<svg xmlns="http://www.w3.org/2000/svg" viewBox="0 0 24 24">
  <path
     style="fill:#555753"
     d="M 18,12 C 17.99528,17.684149 13.660614,22.428573 8,22.945312 7.464537,23 7,23 6,23 V 15 H 7.263672 C 8.811533,14.863429 9.998932,13.553874 10,12 9.9989,10.446126 8.811533,9.136571 7.263672,9 H 6 V 1 C 7,1 7.473478,1 8,1.05078 13.662105,1.567657 17.997296,6.314353 18,12 Z m -2,0 C 15.99457,7.420487 12.55116,3.575238 8,3.066406 V 7.11 C 10.32345,7.587546 11.994184,9.628648 12,12 c -0.003,2.373554 -1.674399,4.417869 -4,4.892578 v 4.046875 C 12.553382,20.43037 15.997547,16.581751 16,12 Z"
     />
  <path
     style="opacity:0.35;fill:#555753"
     d="M 16,12 C 15.99457,7.420487 12.55116,3.575238 8,3.066406 V 7.11 C 10.32345,7.587546 11.994184,9.628648 12,12 c -0.003,2.373554 -1.674399,4.417869 -4,4.892578 v 4.046875 C 12.553382,20.43037 15.997547,16.581751 16,12 Z"
     />
</svg>
